X: 35591
T: Saavu
R: reel
M: 4/4
K: Dmajor
P:A
DE|:F3D EDCD|B,4B,CDE|F2A2B2GF|
E6DE|F2A2B2d2|c2A2B3G|F3D EDCD|
[1 B,2DFE2DC|D6DE:|2 B,2DFE2DE|F2D2EDB,C|D8||
P:B
|:B,CDFE2C2|B,2DFE2C2|B,CDFE2F2|
G2A2E4|DEF2^G3A|B2c2A2Bc|d4c2A2|
B2edc2Bc|d4c2A2|B2GFE2DE|
F2D2EDCD|1 B,2DFE2DC|D8:|2 B,2DFE2DE|F2D2EDB,C|D8||
P:C
d4c2A2|B2e2c4|c8|d4c2A2|E2F2F4|F8||

